possadist-ufo.svg

<svg height="108pt" viewBox="0 0 128 108" width="128pt" xmlns="http://www.w3.org/2000/svg"><path d="m55.37 4.63c3.11-.96 6.38-.6 9.58-.66 2.89.02 5.87-.23 8.67.67.45.17 1.34.5 1.79.67 1.05.32 2.11.61 3.18.89 3.97 2 7.07 5.24 10.76 7.66 1.43.18 2.84.45 4.25.74 1.34.35 2.67.69 3.99 1.13.46.13 1.38.4 1.84.53 2.04.62 4.1 1.15 6.12 1.84.49.3 1.48.9 1.98 1.2.5.25 1.51.75 2.01 1 .52.21 1.57.64 2.09.85 3.95 2.24 6.94 5.75 9.59 9.37-.3 1.39-.59 2.77-.93 4.15-.08.49-.25 1.49-.33 1.99-1.92 2.07-4.18 3.8-6.91 4.63 2.39-2.83 6.99-6.53 4.24-10.55-4.13-5.11-11.02-6.64-17.07-8.28-5.42-1.26-10.94-2.06-16.46-2.69-4-.38-8.02-.58-12.02-.84-4.1-.14-8.2-.12-12.29-.05-3.5.16-6.98.38-10.47.62-5.27.48-10.53 1.14-15.73 2.1-6.34 1.23-12.78 2.8-18.3 6.27-2.22 1.32-3.41 3.69-4.63 5.86 2.16 4.11 5.78 7.06 9.86 9.15-.2.11-.59.33-.79.44-1.37-.39-2.68-.93-4.01-1.44-1.65-1.07-3.29-2.17-4.95-3.24-.77-1.1-1.57-2.18-2.39-3.25-.02-1.99-.03-3.97-.06-5.96 2.34-4.19 6.32-6.97 10.43-9.24.51-.22 1.54-.67 2.06-.9.5-.26 1.51-.78 2.02-1.04 1.02-.29 2.04-.59 3.05-.9 1-.35 1.99-.71 2.97-1.08 2.39-.72 4.8-1.34 7.18-2.11 1.29-.08 2.59-.14 3.88-.21 2.29-2.52 4.74-4.99 7.97-6.26.98-.47 1.96-.95 2.94-1.42 1.04-.32 2.07-.65 3.1-.99.45-.16 1.35-.49 1.79-.65z" fill="#010000"/><path d="m45.8 30.18c4.01-1.92 8.36-3.21 12.82-3.45 4.86.45 9.92.97 14.22 3.51 7.54 4.03 12.55 11.62 13.9 20.01 1.21-2.1 1.83-4.92 4.28-5.96 2.28.1 4.57.24 6.85.39-1.36 2.92-2.73 5.83-4.13 8.73-2.91 5.87-5.76 11.78-8.81 17.58 1.42 1 2.83 2 4.24 3 .04-2.18.07-4.37.1-6.55 2.88 0 5.77.02 8.65.09.45 2.53.54 5.11.66 7.68 3.77.13 7.73-.56 11.29.99l-2.66.21c.23 2.23.45 4.46.7 6.69-1.6.1-3.2.21-4.79.35 1.24 1.01 2.5 2.01 3.77 3.01-.72.79-1.44 1.58-2.16 2.38-3.03 3.14-6.21 6.13-9.41 9.11-4.94-4.91-9.84-9.87-14.79-14.76-.54 0-1.6 0-2.13 0-2.69 0-5.38-.01-8.06-.04 1.23-2.34 2.47-4.68 3.62-7.06-6.52 2.66-13.55 4.56-20.61 2.96-1.12 5.17-2.47 10.31-3.02 15.59-5.09.07-10.17.06-15.26.04 4.27-7.39 7.39-15.38 11.74-22.72 2.09.15 4.17.3 6.26.35 4.14-.36 7.86-2.28 11.41-4.3-2.46-2.38-4.91-4.76-7.36-7.15-1.05 1.12-2.1 2.23-3.11 3.38-1.32 1.42-2.69 2.8-4.05 4.19-3.81-2.52-7.65-4.99-11.48-7.48 2.58-3.5 5.12-7.03 7.61-10.59-.71-.69-1.42-1.37-2.13-2.06 1.38-1.19 2.76-2.39 4.15-3.58.47.35 1.4 1.06 1.87 1.42 2.57-2.62 5.14-5.25 7.47-8.09 3.81 2.47 7.57 5.03 11.33 7.57-2.08 3.23-4.25 6.39-6.51 9.5 2.66 1.72 5.27 3.5 7.87 5.3 2.39-6.92 2.2-15.13-2.3-21.17-2.32-3.49-5.9-5.89-9.78-7.34-4.14-1.49-8.72-1.46-12.78.25-2.22 1.09-4.39 2.3-6.65 3.31 2.09-2.14 4.54-3.89 7.17-5.29m44.5 15.37c-6.13 12.28-12.38 24.51-18.25 36.92 6.06.23 12.12.04 18.18.15.01 2.5.02 5 .05 7.5 2.06-.01 4.12-.01 6.18-.01.03-2.51.04-5.02.06-7.53 3.64 0 7.28.01 10.92 0-.16-2.15-.34-4.29-.5-6.44-3.47.02-6.94 0-10.42-.02-.05-2.6-.05-5.2-.05-7.8-1.97-.01-3.93-.02-5.9-.02-.01 2.54-.02 5.08-.05 7.63-3.03.2-6.06.21-9.09.17 4.78-10.3 9.89-20.44 14.93-30.62-2.03-.01-4.05.01-6.06.07z" fill="#010000"/><g fill="#ed1c24"><path d="m48.98 19.5c3.49-.24 6.97-.46 10.47-.62-.27 2.62-.54 5.24-.83 7.85-4.46.24-8.81 1.53-12.82 3.45 1.07-3.56 2.12-7.12 3.18-10.68z"/><path d="m71.74 18.93c4 .26 8.02.46 12.02.84 2.38 8.19 5.06 16.28 7.26 24.52-2.45 1.04-3.07 3.86-4.28 5.96-1.35-8.39-6.36-15.98-13.9-20.01-.38-3.77-.76-7.54-1.1-11.31z"/><path d="m14.95 27.87c5.52-3.47 11.96-5.04 18.3-6.27-4.49 7.27-8.02 15.11-12.77 22.22l-2.02.06.93-.56c.2-.11.59-.33.79-.44-4.08-2.09-7.7-5.04-9.86-9.15 1.22-2.17 2.41-4.54 4.63-5.86z"/><path d="m100.22 22.46c6.05 1.64 12.94 3.17 17.07 8.28 2.75 4.02-1.85 7.72-4.24 10.55-.33.36-1 1.07-1.33 1.43-4.05-6.62-7.7-13.49-11.5-20.26z"/><path d="m45.28 32.16c4.06-1.71 8.64-1.74 12.78-.25-.23 2.04-.44 4.09-.61 6.14-2.33 2.84-4.9 5.47-7.47 8.09-.47-.36-1.4-1.07-1.87-1.42-1.39 1.19-2.77 2.39-4.15 3.58.71.69 1.42 1.37 2.13 2.06-2.49 3.56-5.03 7.09-7.61 10.59 3.83 2.49 7.67 4.96 11.48 7.48 1.36-1.39 2.73-2.77 4.05-4.19-.39 2.68-.65 5.38-.94 8.07-2.09-.05-4.17-.2-6.26-.35-4.35 7.34-7.47 15.33-11.74 22.72 5.09.02 10.17.03 15.26-.04-.34 3.5-.69 7-1.16 10.49l-.02.17c-.65-.26-1.96-.78-2.61-1.03-1.02-.28-2.03-.59-3.03-.91-1.38-.5-2.73-1.06-4.07-1.65-.95-.34-1.9-.66-2.86-.94-1.72-.96-3.37-2.02-5.08-2.99-1.62-.93-3.16-1.99-4.66-3.09l.07-.27c5.98-20.8 12.2-41.53 18.37-62.26z"/><path d="m84.93 70.99c3.05-5.8 5.9-11.71 8.81-17.58 1.38 4.71 2.94 9.37 4.18 14.12-2.88-.07-5.77-.09-8.65-.09-.03 2.18-.06 4.37-.1 6.55-1.41-1-2.82-2-4.24-3z"/><path d="m78.4 83.19h2.13c4.95 4.89 9.85 9.85 14.79 14.76 3.2-2.98 6.38-5.97 9.41-9.11.04.66.12 1.98.16 2.64l.02.3c-5.28 4.95-11.9 8.03-18.44 10.93-1.93.69-3.82 1.49-5.75 2.18-1.06-7.2-1.33-14.49-2.32-21.7z"/></g><path d="m59.45 18.88c4.09-.07 8.19-.09 12.29.05.34 3.77.72 7.54 1.1 11.31-4.3-2.54-9.36-3.06-14.22-3.51.29-2.61.56-5.23.83-7.85z" fill="#fcfc00"/><path d="m33.25 21.6c5.2-.96 10.46-1.62 15.73-2.1-1.06 3.56-2.11 7.12-3.18 10.68-2.63 1.4-5.08 3.15-7.17 5.29 2.26-1.01 4.43-2.22 6.65-3.31-6.17 20.73-12.39 41.46-18.37 62.26-7.9-5.56-14.31-13.29-18.65-21.93-.61-1.34-1.26-2.67-1.91-4 .68-.97 1.37-1.93 1.99-2.94 1.42-3.13 3.06-6.16 4.97-9.02 1.13-2.44 2.53-4.75 4-7.01.97-1.94 1.9-3.92 3.17-5.7 4.75-7.11 8.28-14.95 12.77-22.22z" fill="#fcfc00"/><path d="m83.76 19.77c5.52.63 11.04 1.43 16.46 2.69 3.8 6.77 7.45 13.64 11.5 20.26 1.52 2.16 2.88 4.42 3.99 6.82 1.45 2.26 2.85 4.55 3.98 6.99.99 1.65 2.07 3.25 3.03 4.93.37.82.76 1.63 1.15 2.45-.54 1.16-1.06 2.33-1.61 3.49-1.13 3.56-2.85 6.93-4.95 10.02-1.52 2.37-3.08 4.74-5.04 6.78-2.4 2.48-4.03 5.86-7.38 7.28-.04-.66-.12-1.98-.16-2.64.72-.8 1.44-1.59 2.16-2.38-1.27-1-2.53-2-3.77-3.01 1.59-.14 3.19-.25 4.79-.35-.25-2.23-.47-4.46-.7-6.69l2.66-.21c-3.56-1.55-7.52-.86-11.29-.99-.12-2.57-.21-5.15-.66-7.68-1.24-4.75-2.8-9.41-4.18-14.12 1.4-2.9 2.77-5.81 4.13-8.73-2.28-.15-4.57-.29-6.85-.39-2.2-8.24-4.88-16.33-7.26-24.52z" fill="#fcfc00"/><path d="m58.06 31.91c3.88 1.45 7.46 3.85 9.78 7.34 4.5 6.04 4.69 14.25 2.3 21.17-2.6-1.8-5.21-3.58-7.87-5.3 2.26-3.11 4.43-6.27 6.51-9.5-3.76-2.54-7.52-5.1-11.33-7.57.17-2.05.38-4.1.61-6.14z" fill="#fcfc00"/><path d="m90.3 45.55c2.01-.06 4.03-.08 6.06-.07-5.04 10.18-10.15 20.32-14.93 30.62 3.03.04 6.06.03 9.09-.17.03-2.55.04-5.09.05-7.63 1.97 0 3.93.01 5.9.02 0 2.6 0 5.2.05 7.8 3.48.02 6.95.04 10.42.02.16 2.15.34 4.29.5 6.44-3.64.01-7.28 0-10.92 0-.02 2.51-.03 5.02-.06 7.53-2.06 0-4.12 0-6.18.01-.03-2.5-.04-5-.05-7.5-6.06-.11-12.12.08-18.18-.15 5.87-12.41 12.12-24.64 18.25-36.92z" fill="#fcfc00"/><path d="m54.01 64.24c1.01-1.15 2.06-2.26 3.11-3.38 2.45 2.39 4.9 4.77 7.36 7.15-3.55 2.02-7.27 3.94-11.41 4.3.29-2.69.55-5.39.94-8.07z" fill="#fcfc00"/><path d="m53.35 79.05c7.06 1.6 14.09-.3 20.61-2.96-1.15 2.38-2.39 4.72-3.62 7.06 2.68.03 5.37.04 8.06.04.99 7.21 1.26 14.5 2.32 21.7-8.2 2-16.95 3.03-25.27 1.33-2.11-.23-4.26-.35-6.28-1.09.47-3.49.82-6.99 1.16-10.49.55-5.28 1.9-10.42 3.02-15.59z" fill="#fcfc00"/></svg>

<?xml version="1.0" encoding="UTF-8" ?>
<!DOCTYPE svg PUBLIC "-//W3C//DTD SVG 1.1//EN" "http://www.w3.org/Graphics/SVG/1.1/DTD/svg11.dtd">
<svg width="128pt" height="108pt" viewBox="0 0 128 108" version="1.1" xmlns="http://www.w3.org/2000/svg">
<g id="#010000ff">
<path fill="#010000" opacity="1.00" d=" M 55.37 4.63 C 58.48 3.67 61.75 4.03 64.95 3.97 C 67.84 3.99 70.82 3.74 73.62 4.64 C 74.07 4.81 74.96 5.14 75.41 5.31 C 76.46 5.63 77.52 5.92 78.59 6.20 C 82.56 8.20 85.66 11.44 89.35 13.86 C 90.78 14.04 92.19 14.31 93.60 14.60 C 94.94 14.95 96.27 15.29 97.59 15.73 C 98.05 15.86 98.97 16.13 99.43 16.26 C 101.47 16.88 103.53 17.41 105.55 18.10 C 106.04 18.40 107.03 19.00 107.53 19.30 C 108.03 19.55 109.04 20.05 109.54 20.30 C 110.06 20.51 111.11 20.94 111.63 21.15 C 115.58 23.39 118.57 26.90 121.22 30.52 C 120.92 31.91 120.63 33.29 120.29 34.67 C 120.21 35.16 120.04 36.16 119.96 36.66 C 118.04 38.73 115.78 40.46 113.05 41.29 C 115.44 38.46 120.04 34.76 117.29 30.74 C 113.16 25.63 106.27 24.10 100.22 22.46 C 94.80 21.20 89.28 20.40 83.76 19.77 C 79.76 19.39 75.74 19.19 71.74 18.93 C 67.64 18.79 63.54 18.81 59.45 18.88 C 55.95 19.04 52.47 19.26 48.98 19.50 C 43.71 19.98 38.45 20.64 33.25 21.60 C 26.91 22.83 20.47 24.40 14.95 27.87 C 12.73 29.19 11.54 31.56 10.32 33.73 C 12.48 37.84 16.10 40.79 20.18 42.88 C 19.98 42.99 19.59 43.21 19.39 43.32 C 18.02 42.93 16.71 42.39 15.38 41.88 C 13.73 40.81 12.09 39.71 10.43 38.64 C 9.66 37.54 8.86 36.46 8.04 35.39 C 8.02 33.40 8.01 31.42 7.98 29.43 C 10.32 25.24 14.30 22.46 18.41 20.19 C 18.92 19.97 19.95 19.52 20.47 19.29 C 20.97 19.03 21.98 18.51 22.49 18.25 C 23.51 17.96 24.53 17.66 25.54 17.35 C 26.54 17.00 27.53 16.64 28.51 16.27 C 30.90 15.55 33.31 14.93 35.69 14.16 C 36.98 14.08 38.28 14.02 39.57 13.95 C 41.86 11.43 44.31 8.96 47.54 7.69 C 48.52 7.22 49.50 6.74 50.48 6.27 C 51.52 5.95 52.55 5.62 53.58 5.28 C 54.03 5.12 54.93 4.79 55.37 4.63 Z" />
<path fill="#010000" opacity="1.00" d=" M 45.80 30.18 C 49.81 28.26 54.16 26.97 58.62 26.73 C 63.48 27.18 68.54 27.70 72.84 30.24 C 80.38 34.27 85.39 41.86 86.74 50.25 C 87.95 48.15 88.57 45.33 91.02 44.29 C 93.30 44.39 95.59 44.53 97.87 44.68 C 96.51 47.60 95.14 50.51 93.74 53.41 C 90.83 59.28 87.98 65.19 84.93 70.99 C 86.35 71.99 87.76 72.99 89.17 73.99 C 89.21 71.81 89.24 69.62 89.27 67.44 C 92.15 67.44 95.04 67.46 97.92 67.53 C 98.37 70.06 98.46 72.64 98.58 75.21 C 102.35 75.34 106.31 74.65 109.87 76.20 L 107.21 76.41 C 107.44 78.64 107.66 80.87 107.91 83.10 C 106.31 83.20 104.71 83.31 103.12 83.45 C 104.36 84.46 105.62 85.46 106.89 86.46 C 106.17 87.25 105.45 88.04 104.73 88.84 C 101.70 91.98 98.52 94.97 95.32 97.95 C 90.38 93.04 85.48 88.08 80.53 83.19 C 79.99 83.19 78.93 83.19 78.40 83.19 C 75.71 83.19 73.02 83.18 70.34 83.15 C 71.57 80.81 72.81 78.47 73.96 76.09 C 67.44 78.75 60.41 80.65 53.35 79.05 C 52.23 84.22 50.88 89.36 50.33 94.64 C 45.24 94.71 40.16 94.70 35.07 94.68 C 39.34 87.29 42.46 79.30 46.81 71.96 C 48.90 72.11 50.98 72.26 53.07 72.31 C 57.21 71.95 60.93 70.03 64.48 68.01 C 62.02 65.63 59.57 63.25 57.12 60.86 C 56.07 61.98 55.02 63.09 54.01 64.24 C 52.69 65.66 51.32 67.04 49.96 68.43 C 46.15 65.91 42.31 63.44 38.48 60.95 C 41.06 57.45 43.60 53.92 46.09 50.36 C 45.38 49.67 44.67 48.99 43.96 48.30 C 45.34 47.11 46.72 45.91 48.11 44.72 C 48.58 45.07 49.51 45.78 49.98 46.14 C 52.55 43.52 55.12 40.89 57.45 38.05 C 61.26 40.52 65.02 43.08 68.78 45.62 C 66.70 48.85 64.53 52.01 62.27 55.12 C 64.93 56.84 67.54 58.62 70.14 60.42 C 72.53 53.50 72.34 45.29 67.84 39.25 C 65.52 35.76 61.94 33.36 58.06 31.91 C 53.92 30.42 49.34 30.45 45.28 32.16 C 43.06 33.25 40.89 34.46 38.63 35.47 C 40.72 33.33 43.17 31.58 45.80 30.18 M 90.30 45.55 C 84.17 57.83 77.92 70.06 72.05 82.47 C 78.11 82.70 84.17 82.51 90.23 82.62 C 90.24 85.12 90.25 87.62 90.28 90.12 C 92.34 90.11 94.40 90.11 96.46 90.11 C 96.49 87.60 96.50 85.09 96.52 82.58 C 100.16 82.58 103.80 82.59 107.44 82.58 C 107.28 80.43 107.10 78.29 106.94 76.14 C 103.47 76.16 100.00 76.14 96.52 76.12 C 96.47 73.52 96.47 70.92 96.47 68.32 C 94.50 68.31 92.54 68.30 90.57 68.30 C 90.56 70.84 90.55 73.38 90.52 75.93 C 87.49 76.13 84.46 76.14 81.43 76.10 C 86.21 65.80 91.32 55.66 96.36 45.48 C 94.33 45.47 92.31 45.49 90.30 45.55 Z" />
</g>
<g id="#ed1c24ff">
<path fill="#ed1c24" opacity="1.00" d=" M 48.98 19.50 C 52.47 19.26 55.95 19.04 59.45 18.88 C 59.18 21.50 58.91 24.12 58.62 26.73 C 54.16 26.97 49.81 28.26 45.80 30.18 C 46.87 26.62 47.92 23.06 48.98 19.50 Z" />
<path fill="#ed1c24" opacity="1.00" d=" M 71.74 18.93 C 75.74 19.19 79.76 19.39 83.76 19.77 C 86.14 27.96 88.82 36.05 91.02 44.29 C 88.57 45.33 87.95 48.15 86.74 50.25 C 85.39 41.86 80.38 34.27 72.84 30.24 C 72.46 26.47 72.08 22.70 71.74 18.93 Z" />
<path fill="#ed1c24" opacity="1.00" d=" M 14.95 27.87 C 20.47 24.40 26.91 22.83 33.25 21.60 C 28.76 28.87 25.23 36.71 20.48 43.82 L 18.46 43.88 L 19.39 43.32 C 19.59 43.21 19.98 42.99 20.18 42.88 C 16.10 40.79 12.48 37.84 10.32 33.73 C 11.54 31.56 12.73 29.19 14.95 27.87 Z" />
<path fill="#ed1c24" opacity="1.00" d=" M 100.22 22.46 C 106.27 24.10 113.16 25.63 117.29 30.74 C 120.04 34.76 115.44 38.46 113.05 41.29 C 112.72 41.65 112.05 42.36 111.72 42.72 C 107.67 36.10 104.02 29.23 100.22 22.46 Z" />
<path fill="#ed1c24" opacity="1.00" d=" M 45.28 32.16 C 49.34 30.45 53.92 30.42 58.06 31.91 C 57.83 33.95 57.62 36.00 57.45 38.05 C 55.12 40.89 52.55 43.52 49.98 46.14 C 49.51 45.78 48.58 45.07 48.11 44.72 C 46.72 45.91 45.34 47.11 43.96 48.30 C 44.67 48.99 45.38 49.67 46.09 50.36 C 43.60 53.92 41.06 57.45 38.48 60.95 C 42.31 63.44 46.15 65.91 49.96 68.43 C 51.32 67.04 52.69 65.66 54.01 64.24 C 53.62 66.92 53.36 69.62 53.07 72.31 C 50.98 72.26 48.90 72.11 46.81 71.96 C 42.46 79.30 39.34 87.29 35.07 94.68 C 40.16 94.70 45.24 94.71 50.33 94.64 C 49.99 98.14 49.64 101.64 49.17 105.13 L 49.15 105.30 C 48.50 105.04 47.19 104.52 46.54 104.27 C 45.52 103.99 44.51 103.68 43.51 103.36 C 42.13 102.86 40.78 102.30 39.44 101.71 C 38.49 101.37 37.54 101.05 36.58 100.77 C 34.86 99.81 33.21 98.75 31.50 97.78 C 29.88 96.85 28.34 95.79 26.84 94.69 L 26.91 94.42 C 32.89 73.62 39.11 52.89 45.28 32.16 Z" />
<path fill="#ed1c24" opacity="1.00" d=" M 84.93 70.99 C 87.98 65.19 90.83 59.28 93.74 53.41 C 95.12 58.12 96.68 62.78 97.92 67.53 C 95.04 67.46 92.15 67.44 89.27 67.44 C 89.24 69.62 89.21 71.81 89.17 73.99 C 87.76 72.99 86.35 71.99 84.93 70.99 Z" />
<path fill="#ed1c24" opacity="1.00" d=" M 78.40 83.19 C 78.93 83.19 79.99 83.19 80.53 83.19 C 85.48 88.08 90.38 93.04 95.32 97.95 C 98.52 94.97 101.70 91.98 104.73 88.84 C 104.77 89.50 104.85 90.82 104.89 91.48 L 104.91 91.78 C 99.63 96.73 93.01 99.81 86.47 102.71 C 84.54 103.40 82.65 104.20 80.72 104.89 C 79.66 97.69 79.39 90.40 78.40 83.19 Z" />
</g>
<g id="#fcfc00ff">
<path fill="#fcfc00" opacity="1.00" d=" M 59.45 18.88 C 63.54 18.81 67.64 18.79 71.74 18.93 C 72.08 22.70 72.46 26.47 72.84 30.24 C 68.54 27.70 63.48 27.18 58.62 26.73 C 58.91 24.12 59.18 21.50 59.45 18.88 Z" />
<path fill="#fcfc00" opacity="1.00" d=" M 33.25 21.60 C 38.45 20.64 43.71 19.98 48.98 19.50 C 47.92 23.06 46.87 26.62 45.80 30.18 C 43.17 31.58 40.72 33.33 38.63 35.47 C 40.89 34.46 43.06 33.25 45.28 32.16 C 39.11 52.89 32.89 73.62 26.91 94.42 C 19.01 88.86 12.60 81.13 8.26 72.49 C 7.65 71.15 7.00 69.82 6.35 68.49 C 7.03 67.52 7.72 66.56 8.34 65.55 C 9.76 62.42 11.40 59.39 13.31 56.53 C 14.44 54.09 15.84 51.78 17.31 49.52 C 18.28 47.58 19.21 45.60 20.48 43.82 C 25.23 36.71 28.76 28.87 33.25 21.60 Z" />
<path fill="#fcfc00" opacity="1.00" d=" M 83.76 19.77 C 89.28 20.40 94.80 21.20 100.22 22.46 C 104.02 29.23 107.67 36.10 111.72 42.72 C 113.24 44.88 114.60 47.14 115.71 49.54 C 117.16 51.80 118.56 54.09 119.69 56.53 C 120.68 58.18 121.76 59.78 122.72 61.46 C 123.09 62.28 123.48 63.09 123.87 63.91 C 123.33 65.07 122.81 66.24 122.26 67.40 C 121.13 70.96 119.41 74.33 117.31 77.42 C 115.79 79.79 114.23 82.16 112.27 84.20 C 109.87 86.68 108.24 90.06 104.89 91.48 C 104.85 90.82 104.77 89.50 104.73 88.84 C 105.45 88.04 106.17 87.25 106.89 86.46 C 105.62 85.46 104.36 84.46 103.12 83.45 C 104.71 83.31 106.31 83.20 107.91 83.10 C 107.66 80.87 107.44 78.64 107.21 76.41 L 109.87 76.20 C 106.31 74.65 102.35 75.34 98.58 75.21 C 98.46 72.64 98.37 70.06 97.92 67.53 C 96.68 62.78 95.12 58.12 93.74 53.41 C 95.14 50.51 96.51 47.60 97.87 44.68 C 95.59 44.53 93.30 44.39 91.02 44.29 C 88.82 36.05 86.14 27.96 83.76 19.77 Z" />
<path fill="#fcfc00" opacity="1.00" d=" M 58.06 31.91 C 61.94 33.36 65.52 35.76 67.84 39.25 C 72.34 45.29 72.53 53.50 70.14 60.42 C 67.54 58.62 64.93 56.84 62.27 55.12 C 64.53 52.01 66.70 48.85 68.78 45.62 C 65.02 43.08 61.26 40.52 57.45 38.05 C 57.62 36.00 57.83 33.95 58.06 31.91 Z" />
<path fill="#fcfc00" opacity="1.00" d=" M 90.30 45.55 C 92.31 45.49 94.33 45.47 96.36 45.48 C 91.32 55.66 86.21 65.80 81.43 76.10 C 84.46 76.14 87.49 76.13 90.52 75.93 C 90.55 73.38 90.56 70.84 90.57 68.30 C 92.54 68.30 94.50 68.31 96.47 68.32 C 96.47 70.92 96.47 73.52 96.52 76.12 C 100.00 76.14 103.47 76.16 106.94 76.14 C 107.10 78.29 107.28 80.43 107.44 82.58 C 103.80 82.59 100.16 82.58 96.52 82.58 C 96.50 85.09 96.49 87.60 96.46 90.11 C 94.40 90.11 92.34 90.11 90.28 90.12 C 90.25 87.62 90.24 85.12 90.23 82.62 C 84.17 82.51 78.11 82.70 72.05 82.47 C 77.92 70.06 84.17 57.83 90.30 45.55 Z" />
<path fill="#fcfc00" opacity="1.00" d=" M 54.01 64.24 C 55.02 63.09 56.07 61.98 57.12 60.86 C 59.57 63.25 62.02 65.63 64.48 68.01 C 60.93 70.03 57.21 71.95 53.07 72.31 C 53.36 69.62 53.62 66.92 54.01 64.24 Z" />
<path fill="#fcfc00" opacity="1.00" d=" M 53.35 79.05 C 60.41 80.65 67.44 78.75 73.96 76.09 C 72.81 78.47 71.57 80.81 70.34 83.15 C 73.02 83.18 75.71 83.19 78.40 83.19 C 79.39 90.40 79.66 97.69 80.72 104.89 C 72.52 106.89 63.77 107.92 55.45 106.22 C 53.34 105.99 51.19 105.87 49.17 105.13 C 49.64 101.64 49.99 98.14 50.33 94.64 C 50.88 89.36 52.23 84.22 53.35 79.05 Z" />
</g>
</svg>
